X:93
T:Snowdrops
C:Bob Pasquarello 1989
M:6/8
K:Amix
e|"A"aed cBA | ded cBA|"G"GAB "D/F#"FGA|"Em"BAG "D"FED|
"A"aed cBA | ded cBA|"G"GAB "Em"ded | "A"cAA A2:|
A|"G"BAG FGA| BAG FED| "A"cBA ABc | cAc edc|
"G"BAG FGA| BAB dBd| "Em"eee "D"ded | "A"cAA A2:|
